icons/numix/32x32/mimetypes/wps-office-wps.svg

<?xml version="1.0" encoding="UTF-8" standalone="no"?>
<svg
   xmlns:dc="http://purl.org/dc/elements/1.1/"
   xmlns:cc="http://creativecommons.org/ns#"
   xmlns:rdf="http://www.w3.org/1999/02/22-rdf-syntax-ns#"
   xmlns:svg="http://www.w3.org/2000/svg"
   xmlns="http://www.w3.org/2000/svg"
   xmlns:sodipodi="http://sodipodi.sourceforge.net/DTD/sodipodi-0.dtd"
   xmlns:inkscape="http://www.inkscape.org/namespaces/inkscape"
   width="32"
   height="32"
   viewBox="0 0 32 32"
   id="svg2"
   version="1.1"
   inkscape:version="0.48.5 r10040"
   sodipodi:docname="wps-office-wps.svg">
  <metadata
     id="metadata42">
    <rdf:RDF>
      <cc:Work
         rdf:about="">
        <dc:format>image/svg+xml</dc:format>
        <dc:type
           rdf:resource="http://purl.org/dc/dcmitype/StillImage" />
      </cc:Work>
    </rdf:RDF>
  </metadata>
  <defs
     id="defs40" />
  <sodipodi:namedview
     pagecolor="#ffffff"
     bordercolor="#666666"
     borderopacity="1"
     objecttolerance="10"
     gridtolerance="10"
     guidetolerance="10"
     inkscape:pageopacity="0"
     inkscape:pageshadow="2"
     inkscape:window-width="1280"
     inkscape:window-height="970"
     id="namedview38"
     showgrid="true"
     inkscape:zoom="14.75"
     inkscape:cx="29.576689"
     inkscape:cy="14.693301"
     inkscape:window-x="0"
     inkscape:window-y="0"
     inkscape:window-maximized="1"
     inkscape:current-layer="svg2">
    <inkscape:grid
       type="xygrid"
       id="grid3046" />
  </sodipodi:namedview>
  <path
     style="fill:#3468ce;fill-opacity:1"
     d="M 5.335888,2.975e-4 C 4.648414,3.125e-4 4,0.6767885 4,1.3940315 L 4,30.606268 C 4,31.282757 4.687474,32 5.335888,32 l 21.327333,0 c 0.648413,0 1.335888,-0.717243 1.335888,-1.393732 l 8.92e-4,-21.6062679 -9,-8.9999996 z"
     id="path4-1"
     inkscape:connector-curvature="0"
     sodipodi:nodetypes="ssssssccs" />
  <path
     style="fill:#000000;fill-opacity:0.19599998"
     d="M 21,9.0000001 28,16 28,9.0000001 z"
     id="path6-4"
     inkscape:connector-curvature="0"
     sodipodi:nodetypes="cccc" />
  <path
     style="fill:#ffffff;fill-opacity:0.39200003"
     d="m 19.000306,2.975e-4 8.991594,8.9997026 -7.613262,0 c -0.67295,0 -1.378332,-0.7134896 -1.378332,-1.3864402 z"
     id="path8-6"
     inkscape:connector-curvature="0"
     sodipodi:nodetypes="ccssc" />
  <rect
     style="fill:#f9f9f9;fill-opacity:1;fill-rule:evenodd;stroke:none"
     id="rect3029"
     width="6"
     height="5"
     x="10"
     y="11" />
  <rect
     style="fill:#f9f9f9;fill-opacity:1;fill-rule:evenodd;stroke:none"
     id="rect3031"
     width="5"
     height="1"
     x="17"
     y="11" />
  <path
     style="fill:#000000;fill-opacity:0.19599998"
     d="m 4,24 0,6.667969 C 4,31.316407 4.6874999,32 5.3320309,32 L 26.667969,32 C 27.3125,32 28,31.316407 28,30.667969 L 28,24 z"
     id="path26"
     inkscape:connector-curvature="0" />
  <rect
     style="fill:#f9f9f9;fill-opacity:1;fill-rule:evenodd;stroke:none"
     id="rect3033"
     width="5"
     height="1"
     x="17"
     y="12.999999" />
  <g
     style="fill:#ffffff"
     id="g30"
     transform="matrix(1.0663281,0,0,1.0663281,-0.89241381,-0.88046776)">
    <path
       d="m 11.867188,26.589844 c 0.02344,0.105468 0.0625,0.234375 0.109374,0.386718 0.05078,0.15625 0.101563,0.328126 0.160157,0.511719 0.0625,0.1875 0.125,0.390625 0.195312,0.605469 0.07422,0.214844 0.144531,0.433594 0.210938,0.660156 0,-0.285156 -0.0039,-0.59375 -0.0078,-0.917968 -0.0078,-0.328126 -0.01172,-0.664063 -0.01953,-1.007813 -0.0078,-0.339844 -0.01172,-0.683594 -0.01953,-1.03125 -0.0039,-0.351563 -0.0078,-0.691406 -0.0078,-1.015625 l 1.058594,0 c -0.01953,0.417969 -0.03906,0.851562 -0.05859,1.296875 -0.01563,0.441406 -0.03906,0.878906 -0.0625,1.320313 -0.02344,0.4375 -0.05469,0.863281 -0.09375,1.289062 -0.03125,0.421875 -0.06641,0.824219 -0.109375,1.203125 l -0.949218,0 c -0.136719,-0.34375 -0.269532,-0.714844 -0.40625,-1.113281 -0.136719,-0.402344 -0.273438,-0.785156 -0.410157,-1.148438 -0.136719,0.347656 -0.277343,0.726563 -0.425781,1.132813 -0.148438,0.40625 -0.285156,0.785156 -0.40625,1.128906 l -0.949219,0 C 9.628906,29.511719 9.582031,29.109375 9.546875,28.6875 9.507812,28.257812 9.476562,27.824219 9.445312,27.390625 9.421875,26.949219 9.398438,26.511719 9.378906,26.070312 9.359375,25.625 9.347656,25.195312 9.332031,24.78125 l 1.058594,0 c -0.0039,0.324219 -0.01172,0.660156 -0.01953,1.007812 -0.0039,0.347657 -0.01172,0.695313 -0.01563,1.039063 -0.0078,0.34375 -0.01563,0.679687 -0.01953,1.007813 -0.0078,0.324218 -0.01172,0.632812 -0.01172,0.917968 0.05859,-0.175781 0.121093,-0.371094 0.1875,-0.578125 0.07422,-0.210937 0.140625,-0.414062 0.203125,-0.621093 0.07031,-0.203126 0.132812,-0.390626 0.1875,-0.558594 C 10.957031,26.824219 11,26.6875 11.03125,26.589844 l 0.835938,0"
       id="path32"
       inkscape:connector-curvature="0" />
    <path
       d="m 15.835938,24.722656 c 0.730468,0 1.296874,0.136719 1.699218,0.40625 0.402344,0.265625 0.605469,0.699219 0.605469,1.304688 0,0.609375 -0.207031,1.054687 -0.613281,1.328125 -0.402344,0.269531 -0.976563,0.40625 -1.71875,0.40625 l -0.40625,0 0,1.722656 -1.140625,0 0,-5.042969 c 0.109375,-0.01953 0.234375,-0.03906 0.371093,-0.05859 0.140626,-0.01562 0.28125,-0.02734 0.425782,-0.03125 0.140625,-0.01172 0.28125,-0.01953 0.417968,-0.02344 0.136719,-0.0078 0.257813,-0.01172 0.359376,-0.01172 m 0.132812,0.886719 c -0.07031,0 -0.164062,0 -0.289062,0.0078 -0.117188,0 -0.210938,0.0039 -0.277344,0.01562 l 0,1.652344 0.464844,0 c 0.363281,0 0.636718,-0.06641 0.824218,-0.191406 0.183594,-0.132812 0.277344,-0.355469 0.277344,-0.667969 0,-0.296875 -0.09375,-0.507812 -0.277344,-0.628906 -0.179687,-0.125 -0.421875,-0.1875 -0.722656,-0.1875"
       id="path34"
       inkscape:connector-curvature="0" />
    <path
       d="m 20.550781,29.148438 c 0.191407,0 0.351563,-0.01563 0.472657,-0.04688 0.132812,-0.03906 0.234374,-0.08984 0.308593,-0.148437 0.07422,-0.06641 0.121094,-0.140625 0.148438,-0.214844 0.03125,-0.08594 0.04687,-0.167969 0.04687,-0.25 0,-0.105469 -0.03516,-0.199219 -0.105469,-0.28125 C 21.355469,28.125 21.269531,28.054688 21.164062,27.992188 21.058594,27.925781 20.941406,27.871094 20.8125,27.820312 20.679688,27.765625 20.550781,27.714844 20.421875,27.671875 20.25,27.617188 20.070312,27.554688 19.882812,27.480469 19.699219,27.410156 19.527344,27.320312 19.371094,27.210938 19.222656,27.097656 19.101562,26.964844 19,26.804688 18.902344,26.640625 18.851562,26.4375 18.851562,26.195312 c 0,-0.480468 0.175782,-0.855468 0.519532,-1.125 0.355468,-0.269531 0.835937,-0.402343 1.449218,-0.402343 0.351563,0 0.660157,0.03516 0.917969,0.105469 0.265625,0.07031 0.488281,0.152343 0.667969,0.238281 l -0.332031,0.785156 c -0.15625,-0.07813 -0.328125,-0.140625 -0.519531,-0.199219 -0.1875,-0.05469 -0.402344,-0.08203 -0.652344,-0.08203 -0.605469,0 -0.90625,0.195313 -0.90625,0.585937 0,0.101563 0.03125,0.1875 0.08984,0.265626 0.0625,0.07031 0.140624,0.136718 0.234374,0.199218 0.09766,0.05469 0.207032,0.105469 0.324219,0.148438 0.125,0.04297 0.242188,0.08594 0.359375,0.121094 0.179688,0.0625 0.367188,0.132812 0.558594,0.207031 0.199219,0.07422 0.378906,0.171875 0.539062,0.296875 0.167969,0.121094 0.300782,0.277344 0.40625,0.464844 0.105469,0.179687 0.160157,0.410156 0.160157,0.691406 0,0.480468 -0.175781,0.851562 -0.53125,1.117187 C 21.792969,29.871094 21.261719,30 20.550781,30 c -0.476562,0 -0.855469,-0.04297 -1.140625,-0.132812 -0.285156,-0.09375 -0.5,-0.179688 -0.640625,-0.253907 l 0.335938,-0.828125 c 0.164062,0.08984 0.363281,0.171875 0.59375,0.25 0.234375,0.07422 0.519531,0.113282 0.851562,0.113282"
       id="path36"
       inkscape:connector-curvature="0" />
  </g>
  <rect
     style="fill:#f9f9f9;fill-opacity:1;fill-rule:evenodd;stroke:none"
     id="rect3035"
     width="5"
     height="1"
     x="17"
     y="14.999999" />
  <rect
     style="fill:#f9f9f9;fill-opacity:1;fill-rule:evenodd;stroke:none"
     id="rect3037"
     width="12"
     height="1"
     x="10"
     y="17" />
  <rect
     style="fill:#f9f9f9;fill-opacity:1;fill-rule:evenodd;stroke:none"
     id="rect3039"
     width="12"
     height="1"
     x="10"
     y="19.000002" />
  <rect
     style="fill:#f9f9f9;fill-opacity:1;fill-rule:evenodd;stroke:none"
     id="rect3041"
     width="12"
     height="1"
     x="10"
     y="21.000002" />
</svg>

<svg width="32" xmlns="http://www.w3.org/2000/svg" height="32" viewBox="0 0 32 32" xmlns:xlink="http://www.w3.org/1999/xlink">
<path style="fill:#3468ce" d="M 5.332031 0.667969 C 4.648438 0.667969 4 1.3125 4 2 L 4 30 C 4 30.648438 4.6875 31.332031 5.332031 31.332031 L 26.667969 31.332031 C 27.3125 31.332031 28 30.648438 28 30 L 28 9.332031 L 19.332031 0.667969 Z "/>
<path style="fill:#000;fill-opacity:.196" d="M 19.332031 8 L 19.375 8.042969 L 19.480469 8 Z M 20.667969 9.332031 L 28 16.667969 L 28 9.332031 Z "/>
<g style="fill:#fff">
<path style="fill-opacity:.392" d="M 19.332031 0.667969 L 28 9.332031 L 20.667969 9.332031 C 20.019531 9.332031 19.332031 8.648438 19.332031 8 Z "/>
<path d="M 10.71875 10.667969 L 15.28125 10.667969 C 15.492188 10.667969 15.667969 10.847656 15.667969 11.066406 L 15.667969 14.933594 C 15.667969 15.152344 15.492188 15.332031 15.28125 15.332031 L 10.71875 15.332031 C 10.507812 15.332031 10.332031 15.152344 10.332031 14.933594 L 10.332031 11.066406 C 10.332031 10.847656 10.507812 10.667969 10.71875 10.667969 Z "/>
</g>
<g style="fill:none;stroke-linejoin:round;stroke:#fff;stroke-linecap:round">
<path d="M 26.498047 17.5 L 31.501953 17.5 " transform="matrix(.66667 0 0 .66667 -.33333 -.66667)"/>
<path d="M 26.498047 20.5 L 31.501953 20.5 " transform="matrix(.66667 0 0 .66667 -.33333 -.66667)"/>
<path d="M 26.498047 23.5 L 31.501953 23.5 " transform="matrix(.66667 0 0 .66667 -.33333 -.66667)"/>
<path d="M 15.998047 26.5 L 32 26.5 " transform="matrix(.66667 0 0 .66667 -.33333 -.66667)"/>
<path d="M 15.998047 29.5 L 32 29.5 " transform="matrix(.66667 0 0 .66667 -.33333 -.66667)"/>
<path d="M 15.998047 32.5 L 32 32.5 " transform="matrix(.66667 0 0 .66667 -.33333 -.66667)"/>
</g>
<path style="fill:#000;fill-opacity:.196" d="M 4 23.332031 L 4 30 C 4 30.648438 4.6875 31.332031 5.332031 31.332031 L 26.667969 31.332031 C 27.3125 31.332031 28 30.648438 28 30 L 28 23.332031 Z "/>
<g style="fill:#fff">
<path d="M 11.867188 26.589844 C 11.890625 26.695312 11.929688 26.824219 11.976562 26.976562 C 12.027344 27.132812 12.078125 27.304688 12.136719 27.488281 C 12.199219 27.675781 12.261719 27.878906 12.332031 28.09375 C 12.40625 28.308594 12.476562 28.527344 12.542969 28.753906 C 12.542969 28.46875 12.539062 28.160156 12.535156 27.835938 C 12.527344 27.507812 12.523438 27.171875 12.515625 26.828125 C 12.507812 26.488281 12.503906 26.144531 12.496094 25.796875 C 12.492188 25.445312 12.488281 25.105469 12.488281 24.78125 L 13.546875 24.78125 C 13.527344 25.199219 13.507812 25.632812 13.488281 26.078125 C 13.472656 26.519531 13.449219 26.957031 13.425781 27.398438 C 13.402344 27.835938 13.371094 28.261719 13.332031 28.6875 C 13.300781 29.109375 13.265625 29.511719 13.222656 29.890625 L 12.273438 29.890625 C 12.136719 29.546875 12.003906 29.175781 11.867188 28.777344 C 11.730469 28.375 11.59375 27.992188 11.457031 27.628906 C 11.320312 27.976562 11.179688 28.355469 11.03125 28.761719 C 10.882812 29.167969 10.746094 29.546875 10.625 29.890625 L 9.675781 29.890625 C 9.628906 29.511719 9.582031 29.109375 9.546875 28.6875 C 9.507812 28.257812 9.476562 27.824219 9.445312 27.390625 C 9.421875 26.949219 9.398438 26.511719 9.378906 26.070312 C 9.359375 25.625 9.347656 25.195312 9.332031 24.78125 L 10.390625 24.78125 C 10.386719 25.105469 10.378906 25.441406 10.371094 25.789062 C 10.367188 26.136719 10.359375 26.484375 10.355469 26.828125 C 10.347656 27.171875 10.339844 27.507812 10.335938 27.835938 C 10.328125 28.160156 10.324219 28.46875 10.324219 28.753906 C 10.382812 28.578125 10.445312 28.382812 10.511719 28.175781 C 10.585938 27.964844 10.652344 27.761719 10.714844 27.554688 C 10.785156 27.351562 10.847656 27.164062 10.902344 26.996094 C 10.957031 26.824219 11 26.6875 11.03125 26.589844 L 11.867188 26.589844 "/>
<path d="M 15.835938 24.722656 C 16.566406 24.722656 17.132812 24.859375 17.535156 25.128906 C 17.9375 25.394531 18.140625 25.828125 18.140625 26.433594 C 18.140625 27.042969 17.933594 27.488281 17.527344 27.761719 C 17.125 28.03125 16.550781 28.167969 15.808594 28.167969 L 15.402344 28.167969 L 15.402344 29.890625 L 14.261719 29.890625 L 14.261719 24.847656 C 14.371094 24.828125 14.496094 24.808594 14.632812 24.789062 C 14.773438 24.773438 14.914062 24.761719 15.058594 24.757812 C 15.199219 24.746094 15.339844 24.738281 15.476562 24.734375 C 15.613281 24.726562 15.734375 24.722656 15.835938 24.722656 M 15.96875 25.609375 C 15.898438 25.609375 15.804688 25.609375 15.679688 25.617188 C 15.5625 25.617188 15.46875 25.621094 15.402344 25.632812 L 15.402344 27.285156 L 15.867188 27.285156 C 16.230469 27.285156 16.503906 27.21875 16.691406 27.09375 C 16.875 26.960938 16.96875 26.738281 16.96875 26.425781 C 16.96875 26.128906 16.875 25.917969 16.691406 25.796875 C 16.511719 25.671875 16.269531 25.609375 15.96875 25.609375 "/>
<path d="M 20.550781 29.148438 C 20.742188 29.148438 20.902344 29.132812 21.023438 29.101562 C 21.15625 29.0625 21.257812 29.011719 21.332031 28.953125 C 21.40625 28.886719 21.453125 28.8125 21.480469 28.738281 C 21.511719 28.652344 21.527344 28.570312 21.527344 28.488281 C 21.527344 28.382812 21.492188 28.289062 21.421875 28.207031 C 21.355469 28.125 21.269531 28.054688 21.164062 27.992188 C 21.058594 27.925781 20.941406 27.871094 20.8125 27.820312 C 20.679688 27.765625 20.550781 27.714844 20.421875 27.671875 C 20.25 27.617188 20.070312 27.554688 19.882812 27.480469 C 19.699219 27.410156 19.527344 27.320312 19.371094 27.210938 C 19.222656 27.097656 19.101562 26.964844 19 26.804688 C 18.902344 26.640625 18.851562 26.4375 18.851562 26.195312 C 18.851562 25.714844 19.027344 25.339844 19.371094 25.070312 C 19.726562 24.800781 20.207031 24.667969 20.820312 24.667969 C 21.171875 24.667969 21.480469 24.703125 21.738281 24.773438 C 22.003906 24.84375 22.226562 24.925781 22.40625 25.011719 L 22.074219 25.796875 C 21.917969 25.71875 21.746094 25.65625 21.554688 25.597656 C 21.367188 25.542969 21.152344 25.515625 20.902344 25.515625 C 20.296875 25.515625 19.996094 25.710938 19.996094 26.101562 C 19.996094 26.203125 20.027344 26.289062 20.085938 26.367188 C 20.148438 26.4375 20.226562 26.503906 20.320312 26.566406 C 20.417969 26.621094 20.527344 26.671875 20.644531 26.714844 C 20.769531 26.757812 20.886719 26.800781 21.003906 26.835938 C 21.183594 26.898438 21.371094 26.96875 21.5625 27.042969 C 21.761719 27.117188 21.941406 27.214844 22.101562 27.339844 C 22.269531 27.460938 22.402344 27.617188 22.507812 27.804688 C 22.613281 27.984375 22.667969 28.214844 22.667969 28.496094 C 22.667969 28.976562 22.492188 29.347656 22.136719 29.613281 C 21.792969 29.871094 21.261719 30 20.550781 30 C 20.074219 30 19.695312 29.957031 19.410156 29.867188 C 19.125 29.773438 18.910156 29.6875 18.769531 29.613281 L 19.105469 28.785156 C 19.269531 28.875 19.46875 28.957031 19.699219 29.035156 C 19.933594 29.109375 20.21875 29.148438 20.550781 29.148438 "/>
</g>
</svg>
